icons/bhi_publish.svg

<svg xmlns="http://www.w3.org/2000/svg" viewBox="0 0 512 512" enable-background="new 0 0 512 512"><path fill="#010101" d="M64 333.4h96v178.6h192v-178.6h96l-192-205.4-192 205.4zm416-269.4v-64h-448v64h448z"/></svg>

<?xml version="1.0" encoding="utf-8"?>
<!-- Generator: Adobe Illustrator 19.2.0, SVG Export Plug-In . SVG Version: 6.00 Build 0)  -->
<svg version="1.1" id="Layer_1" xmlns="http://www.w3.org/2000/svg" xmlns:xlink="http://www.w3.org/1999/xlink" x="0px" y="0px"
	 viewBox="0 0 512 512" enable-background="new 0 0 512 512" xml:space="preserve">
<g id="file-download_2_">
	<path fill="#010101" d="M64,333.4h96V512h192V333.4h96L256,128L64,333.4z M480,64V0L32,0v64H480z"/>
</g>
</svg>
